apps/pie-docs/src/assets/img/components/switch/interactive-states-focus.svg

<svg width="116" height="32" viewBox="0 0 116 32" fill="none" xmlns="http://www.w3.org/2000/svg">
<g clip-path="url(#clip0_1157_16768)">
<path d="M4 16C4 9.37258 9.37258 4 16 4H40C46.6274 4 52 9.37258 52 16C52 22.6274 46.6274 28 40 28H16C9.37258 28 4 22.6274 4 16Z" fill="#797876"/>
<g filter="url(#filter0_ddd_1157_16768)">
<circle cx="16" cy="16" r="10" fill="white"/>
</g>
</g>
<g clip-path="url(#clip1_1157_16768)">
<path d="M64 16C64 9.37258 69.3726 4 76 4H100C106.627 4 112 9.37258 112 16C112 22.6274 106.627 28 100 28H76C69.3726 28 64 22.6274 64 16Z" fill="#F36805"/>
<g filter="url(#filter1_ddd_1157_16768)">
<circle cx="100" cy="16" r="10" fill="white"/>
</g>
<path d="M97.865 20.4889C97.7007 20.4871 97.5385 20.4521 97.3881 20.386C97.2377 20.3198 97.1023 20.2238 96.99 20.1039L93.875 16.6564L94.855 15.7814L97.8825 19.1501L105.136 11.3276L106.099 12.2026L98.7488 20.0776C98.6365 20.1976 98.501 20.2935 98.3507 20.3597C98.2003 20.4259 98.038 20.4609 97.8738 20.4626L97.865 20.4889Z" fill="#F36805"/>
</g>
<rect x="3" y="3" width="50" height="26" rx="13" stroke="white" stroke-width="2"/>
<rect x="1" y="1" width="54" height="30" rx="15" stroke="#094DAC" stroke-width="2"/>
<rect x="63" y="3" width="50" height="26" rx="13" stroke="white" stroke-width="2"/>
<rect x="61" y="1" width="54" height="30" rx="15" stroke="#094DAC" stroke-width="2"/>
<defs>
<filter id="filter0_ddd_1157_16768" x="1" y="2" width="30" height="30" filterUnits="userSpaceOnUse" color-interpolation-filters="sRGB">
<feFlood flood-opacity="0" result="BackgroundImageFix"/>
<feColorMatrix in="SourceAlpha" type="matrix" values="0 0 0 0 0 0 0 0 0 0 0 0 0 0 0 0 0 0 127 0" result="hardAlpha"/>
<feOffset dy="1"/>
<feGaussianBlur stdDeviation="2.5"/>
<feColorMatrix type="matrix" values="0 0 0 0 0 0 0 0 0 0 0 0 0 0 0 0 0 0 0.06 0"/>
<feBlend mode="normal" in2="BackgroundImageFix" result="effect1_dropShadow_1157_16768"/>
<feColorMatrix in="SourceAlpha" type="matrix" values="0 0 0 0 0 0 0 0 0 0 0 0 0 0 0 0 0 0 127 0" result="hardAlpha"/>
<feMorphology radius="2" operator="erode" in="SourceAlpha" result="effect2_dropShadow_1157_16768"/>
<feOffset dy="3"/>
<feGaussianBlur stdDeviation="0.5"/>
<feColorMatrix type="matrix" values="0 0 0 0 0 0 0 0 0 0 0 0 0 0 0 0 0 0 0.07 0"/>
<feBlend mode="normal" in2="effect1_dropShadow_1157_16768" result="effect2_dropShadow_1157_16768"/>
<feColorMatrix in="SourceAlpha" type="matrix" values="0 0 0 0 0 0 0 0 0 0 0 0 0 0 0 0 0 0 127 0" result="hardAlpha"/>
<feOffset dy="2"/>
<feGaussianBlur stdDeviation="1"/>
<feColorMatrix type="matrix" values="0 0 0 0 0 0 0 0 0 0 0 0 0 0 0 0 0 0 0.03 0"/>
<feBlend mode="normal" in2="effect2_dropShadow_1157_16768" result="effect3_dropShadow_1157_16768"/>
<feBlend mode="normal" in="SourceGraphic" in2="effect3_dropShadow_1157_16768" result="shape"/>
</filter>
<filter id="filter1_ddd_1157_16768" x="85" y="2" width="30" height="30" filterUnits="userSpaceOnUse" color-interpolation-filters="sRGB">
<feFlood flood-opacity="0" result="BackgroundImageFix"/>
<feColorMatrix in="SourceAlpha" type="matrix" values="0 0 0 0 0 0 0 0 0 0 0 0 0 0 0 0 0 0 127 0" result="hardAlpha"/>
<feOffset dy="1"/>
<feGaussianBlur stdDeviation="2.5"/>
<feColorMatrix type="matrix" values="0 0 0 0 0 0 0 0 0 0 0 0 0 0 0 0 0 0 0.06 0"/>
<feBlend mode="normal" in2="BackgroundImageFix" result="effect1_dropShadow_1157_16768"/>
<feColorMatrix in="SourceAlpha" type="matrix" values="0 0 0 0 0 0 0 0 0 0 0 0 0 0 0 0 0 0 127 0" result="hardAlpha"/>
<feMorphology radius="2" operator="erode" in="SourceAlpha" result="effect2_dropShadow_1157_16768"/>
<feOffset dy="3"/>
<feGaussianBlur stdDeviation="0.5"/>
<feColorMatrix type="matrix" values="0 0 0 0 0 0 0 0 0 0 0 0 0 0 0 0 0 0 0.07 0"/>
<feBlend mode="normal" in2="effect1_dropShadow_1157_16768" result="effect2_dropShadow_1157_16768"/>
<feColorMatrix in="SourceAlpha" type="matrix" values="0 0 0 0 0 0 0 0 0 0 0 0 0 0 0 0 0 0 127 0" result="hardAlpha"/>
<feOffset dy="2"/>
<feGaussianBlur stdDeviation="1"/>
<feColorMatrix type="matrix" values="0 0 0 0 0 0 0 0 0 0 0 0 0 0 0 0 0 0 0.03 0"/>
<feBlend mode="normal" in2="effect2_dropShadow_1157_16768" result="effect3_dropShadow_1157_16768"/>
<feBlend mode="normal" in="SourceGraphic" in2="effect3_dropShadow_1157_16768" result="shape"/>
</filter>
<clipPath id="clip0_1157_16768">
<path d="M4 16C4 9.37258 9.37258 4 16 4H40C46.6274 4 52 9.37258 52 16C52 22.6274 46.6274 28 40 28H16C9.37258 28 4 22.6274 4 16Z" fill="white"/>
</clipPath>
<clipPath id="clip1_1157_16768">
<path d="M64 16C64 9.37258 69.3726 4 76 4H100C106.627 4 112 9.37258 112 16C112 22.6274 106.627 28 100 28H76C69.3726 28 64 22.6274 64 16Z" fill="white"/>
</clipPath>
</defs>
</svg>

<svg width="116" height="32" fill="none" xmlns="http://www.w3.org/2000/svg"><g filter="url(#interactive-states-focus__a)"><g clip-path="url(#interactive-states-focus__b)"><path d="M4 16C4 9.373 9.373 4 16 4h24c6.627 0 12 5.373 12 12s-5.373 12-12 12H16C9.373 28 4 22.627 4 16Z" fill="#797876"/><g filter="url(#interactive-states-focus__c)"><circle cx="16" cy="16" r="10" fill="#fff"/></g></g></g><g filter="url(#interactive-states-focus__d)"><g clip-path="url(#interactive-states-focus__e)"><path d="M64 16c0-6.627 5.373-12 12-12h24c6.627 0 12 5.373 12 12s-5.373 12-12 12H76c-6.627 0-12-5.373-12-12Z" fill="#F36805"/><g filter="url(#interactive-states-focus__f)"><circle cx="100" cy="16" r="10" fill="#fff"/></g><path d="M97.865 20.489a1.218 1.218 0 0 1-.875-.385l-3.115-3.448.98-.875 3.027 3.37 7.254-7.823.963.875-7.35 7.875a1.217 1.217 0 0 1-.875.385l-.009.026Z" fill="#F36805"/></g></g><defs><filter id="interactive-states-focus__a" x="0" y="0" width="56" height="32" filterUnits="userSpaceOnUse" color-interpolation-filters="sRGB"><feFlood flood-opacity="0" result="BackgroundImageFix"/><feColorMatrix in="SourceAlpha" values="0 0 0 0 0 0 0 0 0 0 0 0 0 0 0 0 0 0 127 0" result="hardAlpha"/><feMorphology radius="4" operator="dilate" in="SourceAlpha" result="effect1_dropShadow_562_19959"/><feOffset/><feComposite in2="hardAlpha" operator="out"/><feColorMatrix values="0 0 0 0 0.0352941 0 0 0 0 0.301961 0 0 0 0 0.67451 0 0 0 1 0"/><feBlend in2="BackgroundImageFix" result="effect1_dropShadow_562_19959"/><feColorMatrix in="SourceAlpha" values="0 0 0 0 0 0 0 0 0 0 0 0 0 0 0 0 0 0 127 0" result="hardAlpha"/><feMorphology radius="2" operator="dilate" in="SourceAlpha" result="effect2_dropShadow_562_19959"/><feOffset/><feComposite in2="hardAlpha" operator="out"/><feColorMatrix values="0 0 0 0 1 0 0 0 0 1 0 0 0 0 1 0 0 0 1 0"/><feBlend in2="effect1_dropShadow_562_19959" result="effect2_dropShadow_562_19959"/><feBlend in="SourceGraphic" in2="effect2_dropShadow_562_19959" result="shape"/></filter><filter id="interactive-states-focus__c" x="1" y="2" width="30" height="30" filterUnits="userSpaceOnUse" color-interpolation-filters="sRGB"><feFlood flood-opacity="0" result="BackgroundImageFix"/><feColorMatrix in="SourceAlpha" values="0 0 0 0 0 0 0 0 0 0 0 0 0 0 0 0 0 0 127 0" result="hardAlpha"/><feOffset dy="1"/><feGaussianBlur stdDeviation="2.5"/><feColorMatrix values="0 0 0 0 0 0 0 0 0 0 0 0 0 0 0 0 0 0 0.06 0"/><feBlend in2="BackgroundImageFix" result="effect1_dropShadow_562_19959"/><feColorMatrix in="SourceAlpha" values="0 0 0 0 0 0 0 0 0 0 0 0 0 0 0 0 0 0 127 0" result="hardAlpha"/><feMorphology radius="2" in="SourceAlpha" result="effect2_dropShadow_562_19959"/><feOffset dy="3"/><feGaussianBlur stdDeviation=".5"/><feColorMatrix values="0 0 0 0 0 0 0 0 0 0 0 0 0 0 0 0 0 0 0.07 0"/><feBlend in2="effect1_dropShadow_562_19959" result="effect2_dropShadow_562_19959"/><feColorMatrix in="SourceAlpha" values="0 0 0 0 0 0 0 0 0 0 0 0 0 0 0 0 0 0 127 0" result="hardAlpha"/><feOffset dy="2"/><feGaussianBlur stdDeviation="1"/><feColorMatrix values="0 0 0 0 0 0 0 0 0 0 0 0 0 0 0 0 0 0 0.03 0"/><feBlend in2="effect2_dropShadow_562_19959" result="effect3_dropShadow_562_19959"/><feBlend in="SourceGraphic" in2="effect3_dropShadow_562_19959" result="shape"/></filter><filter id="interactive-states-focus__d" x="60" y="0" width="56" height="32" filterUnits="userSpaceOnUse" color-interpolation-filters="sRGB"><feFlood flood-opacity="0" result="BackgroundImageFix"/><feColorMatrix in="SourceAlpha" values="0 0 0 0 0 0 0 0 0 0 0 0 0 0 0 0 0 0 127 0" result="hardAlpha"/><feMorphology radius="4" operator="dilate" in="SourceAlpha" result="effect1_dropShadow_562_19959"/><feOffset/><feComposite in2="hardAlpha" operator="out"/><feColorMatrix values="0 0 0 0 0.0352941 0 0 0 0 0.301961 0 0 0 0 0.67451 0 0 0 1 0"/><feBlend in2="BackgroundImageFix" result="effect1_dropShadow_562_19959"/><feColorMatrix in="SourceAlpha" values="0 0 0 0 0 0 0 0 0 0 0 0 0 0 0 0 0 0 127 0" result="hardAlpha"/><feMorphology radius="2" operator="dilate" in="SourceAlpha" result="effect2_dropShadow_562_19959"/><feOffset/><feComposite in2="hardAlpha" operator="out"/><feColorMatrix values="0 0 0 0 1 0 0 0 0 1 0 0 0 0 1 0 0 0 1 0"/><feBlend in2="effect1_dropShadow_562_19959" result="effect2_dropShadow_562_19959"/><feBlend in="SourceGraphic" in2="effect2_dropShadow_562_19959" result="shape"/></filter><filter id="interactive-states-focus__f" x="85" y="2" width="30" height="30" filterUnits="userSpaceOnUse" color-interpolation-filters="sRGB"><feFlood flood-opacity="0" result="BackgroundImageFix"/><feColorMatrix in="SourceAlpha" values="0 0 0 0 0 0 0 0 0 0 0 0 0 0 0 0 0 0 127 0" result="hardAlpha"/><feOffset dy="1"/><feGaussianBlur stdDeviation="2.5"/><feColorMatrix values="0 0 0 0 0 0 0 0 0 0 0 0 0 0 0 0 0 0 0.06 0"/><feBlend in2="BackgroundImageFix" result="effect1_dropShadow_562_19959"/><feColorMatrix in="SourceAlpha" values="0 0 0 0 0 0 0 0 0 0 0 0 0 0 0 0 0 0 127 0" result="hardAlpha"/><feMorphology radius="2" in="SourceAlpha" result="effect2_dropShadow_562_19959"/><feOffset dy="3"/><feGaussianBlur stdDeviation=".5"/><feColorMatrix values="0 0 0 0 0 0 0 0 0 0 0 0 0 0 0 0 0 0 0.07 0"/><feBlend in2="effect1_dropShadow_562_19959" result="effect2_dropShadow_562_19959"/><feColorMatrix in="SourceAlpha" values="0 0 0 0 0 0 0 0 0 0 0 0 0 0 0 0 0 0 127 0" result="hardAlpha"/><feOffset dy="2"/><feGaussianBlur stdDeviation="1"/><feColorMatrix values="0 0 0 0 0 0 0 0 0 0 0 0 0 0 0 0 0 0 0.03 0"/><feBlend in2="effect2_dropShadow_562_19959" result="effect3_dropShadow_562_19959"/><feBlend in="SourceGraphic" in2="effect3_dropShadow_562_19959" result="shape"/></filter><clipPath id="interactive-states-focus__b"><path d="M4 16C4 9.373 9.373 4 16 4h24c6.627 0 12 5.373 12 12s-5.373 12-12 12H16C9.373 28 4 22.627 4 16Z" fill="#fff"/></clipPath><clipPath id="interactive-states-focus__e"><path d="M64 16c0-6.627 5.373-12 12-12h24c6.627 0 12 5.373 12 12s-5.373 12-12 12H76c-6.627 0-12-5.373-12-12Z" fill="#fff"/></clipPath></defs></svg>
